X:1
T:Flow My Tears
T:Flow, My Tears
T:John Dowland (1563-1626)
T:Lacrimae
T:Transribed from the YouTube video by Andrew Scholl (Lutue tablature is removed) 
T:Probably Public Domain. https://www.youtube.com/watch?v=y3REIVlo2Ss
T:Probably Public Domain. https://www.youtube.com/watch?v=y3REIVlo2Ss
T:Probably Public Domain. https://www.youtube.com/watch?v=y3REIVlo2Ss
T:Probably Public Domain. https://www.youtube.com/watch?v=y3REIVlo2Ss
C:John Dowland (1563-1626)
Z:John Dowland
Z:Probably Public Domain. https://www.youtube.com/watch?v=y3REIVlo2Ss
%%score 1 { ( 2 4 ) | ( 3 5 ) }
L:1/8
Q:1/4=84
M:4/4
K:C
V:1 treble nm="Voice" snm="Vo."
V:2 treble nm="Lute" snm="L."
V:4 treble 
V:3 bass 
V:5 bass 
V:1
"^A""^Andante" A6 GF | E4 c4- | c4 B2 A2 | ^G8 | A4 E4- | E2 E2 G2 G2 | F4 D4 | E6 B2 | c4 A4 | %9
w: Flow, my _|tears, fall|_ from your|springs!|Ex- iled|_ for e- ver,|let me|mourn; Where|night's black|
w: Down, vain _|lights, shine|_ you no|more!|No nights|_ are drak e-|nough for|those That|in de-|
 B4 ^G4 | A2 c3 B A2 | ^G4 c4 | B2 A2 A4- | A2 ^G^F G4 | A8- | A8 ::"^B" c6 B2 | A2 G2 c4- | %18
w: bird her|sad in- fa- my|sings, There|let me live|_ for- * *|lorn.|_|Ne- ver|may my woes|
w: spair their|lost for- tunes de-|plore. Light|doth but shame|_ dis- * *|close.|_|From the|high- est spire|
 c2 BA B4 | c4 G4 | z2 A4 ^G2 | A2 F2 E4 | z2 D2 F4 | z2 F2 A4 | z2 A2 c4 | z2 G2 B3 c | d4 z2 D2 | %27
w: _ be _ re-|liev- ed,|Since pi-|ty is fled;|And tears,|and sighs,|and groans|my wea- ry|days, my|
w: _ of _ con-|tent- ment|My for-|tune is thrown;|And fear|and grief|and pain|for my de-|serts, for|
 F3 G A4 | z2 c4 B2 | c3 B A^G A2 | ^G8- | ^G8 ::"^C" ^G6 A2 | B4 c4 | B2 A2 A4- | A4 ^G4 | A6 c2 | %37
w: wea- ry days|Of all|joys have de- * pri-|ved.|_|Hark you|sha- dows|that in dark-|* ness|dwell, Learn|
w: my de- serts|Are my|hopes, since hope _ is|gone.|_||||||
 B2 c2 A4 | ^G8 | z8 | z4 e4- | e2 B2 d4- | d2 A2 c4 | B4 A4 | ^G4 c4 | B2 A2 A4- | A2 ^G^F G4 | %47
w: to con- temn|light,||Hap-|* py, hap-|* py they|that in|hell Feel|not the world's|* de- * *|
w: ||||||||||
 A8- | A8 :| %49
w: spite.|_|
w: ||
V:2
 C6 B,2 | C2 D2 E4- | E2 DC D4 | E4 E4 | z2 E2 A4 | =GFED E4 | z8 | z8 | z2 (E2- EDE^F | %9
 =G2 D2 E4- | E2 E2 D4 | E4) (E2 =G2 | F4 D4) | z2 (E4 D2 | ^C3) (=F EDCB, | [CE]2) z2 z4 :: %16
 [=CEG]8 | ([CE]4 [CG]4- | [CG]2 F2 D4 | E2) (C3 B, G,2 | A,2 C2 B,2 E2 | C2 A,2 A2 E2 | %22
 [A,F]4) z2 (F2 | A4) z2 (A2 | c4) z4 | E3 F G4 | z2 D2 F3 G | A4 z2 F2- | F2 ED E4 | CD E4 D2 | %30
 E3 (E DCB,A, | [^G,B,E]2[I:staff +1] E,2)[I:staff -1] z4 :: [B,E]8 | [^G,B,E]6 A,2 | %34
 [B,E]4 C2 D2 | E6 (D2 | C3 D E3 ^F | [D=G]2 E4 D2 | E6) (B,2 | C4 [B,=G]4) | z2 C2 [A,-E]4 | %41
 [A,D]4 z2 (E2 | F4 E4) | z2 (B,2 C2 D2 | [^G,B,E]4) z2 (G2 | F4 D4 | E6 D2 | ^C3) (=F EDCB, | %48
 [^CE]2[I:staff +1] A,2 A,,4) :| %49
V:3
 [A,,E,A,]8 | [A,,A,]6 G,2 | [F,A,]8 | [E,B,]8 | [E,A,]8 | z4 (((C2 B,2 | D2 C2 B,2 A,2 | %7
 B,2 A,2 ^G,4 | A,6))) (C2 | B,4 B,4 | A,8 | B,4) (C4 | D2 C2 B,2 A,2 | B,8 | [E,A,]4) z4 | %15
 z2 A,2 z4 :: =C,8 | (G,4 G,4 | A,4 z2 F,2 | C,4) z2 z2 | E,2 A,,2 E,4 | A,,2 D,4 ^C,2 | %22
 z2 (F,2 A,4) | z2 (A,2 D4) | z2 (C2 A,B,[I:staff -1]CD) |[I:staff +1] [G,C]4 z2 (G,,2 | %26
 B,,3 C, D,4) | z2 (D,,2 F,,3 G,, | A,,6) (^G,,2 | A,,4 F,,4 | [E,,B,,E,]4) z4 | %31
 [E,,B,,E,]4 E,,4 :: E,8 | E,8 | E,8 | [E,B,]8 | [E,A,]4 z4 | z2 G,2 B,4 | B,8 | (E,6 B,,2 | C,8 | %41
 B,,8 | A,,6) (A,,2 | =G,,4 F,,4 | [E,,B,,E,]4) C,4 | D,4 F,4 | E,8 | [A,,E,A,]4 z4 | A,,8 :| %49
V:4
 x8 | x8 | x8 | x8 | C8 | x8 | x8 | x8 | x8 | x8 | x8 | x8 | x8 | x8 | x8 | x8 :: x8 | x8 | x8 | %19
 x8 | x8 | x8 | x8 | x6 (F2 | E4) z4 | x8 | z4 A,4 | x8 | x8 | x4 A,4 | [^G,B,]4 x4 | x8 :: x8 | %33
 x8 | x8 | x8 | x8 | x8 | x8 | x8 | x8 | x4 ^G,4 | x8 | x8 | x4 [=G,C]4 | D2 C2 B,2 A,2 | B,8 | %47
 x8 | x8 :| %49
V:5
 x8 | x8 | x8 | x8 | A,,6 (A,,2 | C,4 C,4 | D,4 F,4 | E,8 | A,,6) (A,2 | =G,4 E,4 | F,8 | %11
 E,4) (C,4 | D,4 F,4 | E,8 | A,,4) z4 | A,,4 G,,4 :: x8 | (C,4 E,4 | D,8 | C,4) z2 (E,2 | x8 | x8 | %22
 D,4) z2 (D,,2 | F,,4) z2 (F,,2 | A,,4) z2 A,2 | C,4 x4 | x8 | x8 | x8 | x8 | x8 | x8 :: x8 | x8 | %34
 x8 | x8 | (A,,6 A,2 | =G,2 E,2 F,4 | E,8) | x8 | x8 | x8 | x8 | x8 | x8 | x8 | x8 | x8 | x8 :| %49

